archdroid-icon-theme/Archdroid-Red/apps/scalable/shotwell.svg

<svg fill="#F44336" height="48" viewBox="0 0 48 48" width="48" xmlns="http://www.w3.org/2000/svg"><path d="m18.8 21 9.53-16.51c-1.39-.31-2.84-.49-4.33-.49-4.8 0-9.19 1.69-12.64 4.51l7.33 12.69zm24.28-3c-1.84-5.85-6.3-10.52-11.99-12.68l-7.32 12.68zm.52 2h-14.98l.58 1 9.53 16.5c3.26-3.56 5.27-8.29 5.27-13.5 0-1.37-.14-2.71-.4-4zm-26.53 4-7.8-13.5c-3.26 3.56-5.27 8.29-5.27 13.5 0 1.37.14 2.71.4 4h14.98zm-12.15 6c1.84 5.85 6.3 10.52 11.99 12.68l7.32-12.68zm22.54 0-7.8 13.51c1.4.31 2.85.49 4.34.49 4.8 0 9.19-1.69 12.64-4.51l-7.33-12.69z" fill="#F44336"/></svg>

<svg fill="#F44336" height="48" viewBox="0 0 48 48" width="48" xmlns="http://www.w3.org/2000/svg"><path d="M18.8 21l9.53-16.51C26.94 4.18 25.49 4 24 4c-4.8 0-9.19 1.69-12.64 4.51l7.33 12.69.11-.2zm24.28-3c-1.84-5.85-6.3-10.52-11.99-12.68L23.77 18h19.31zm.52 2H28.62l.58 1 9.53 16.5C41.99 33.94 44 29.21 44 24c0-1.37-.14-2.71-.4-4zm-26.53 4l-7.8-13.5C6.01 14.06 4 18.79 4 24c0 1.37.14 2.71.4 4h14.98l-2.31-4zM4.92 30c1.84 5.85 6.3 10.52 11.99 12.68L24.23 30H4.92zm22.54 0l-7.8 13.51c1.4.31 2.85.49 4.34.49 4.8 0 9.19-1.69 12.64-4.51L29.31 26.8 27.46 30z"/></svg>
